X:1     
B:Broadwood, L, 1893, English County Songs, London, Leadenhall Press
S:H Strachey, Esq
Z: Lucy Broadwood
T:I'm a Man that's done wrong to my Parents
F: http://www.folkinfo.org/songs
M:6/8     %Meter
L:1/8     %
K:F
C3/4C// |AAA BGE |F A2 z2 F |DEF AG^F |G3
w:I'm a man that's in trou-ble and sor-row, That once was light-heart-ed and gay; 
   C3/4C// z2 |AAA BGE |F A2 z2 G3/4G// |G=BA GFD | (C3 B) z
w:     Not a coin in this world can I bor-row, Since my own I have squan-der'd a-way_
         C |CEG BAG |F A2 z2 F |DEF AG^F |G3- G z
w:     I once wronged my fath-er and moth-er, Till they turned me out from their door, 
        c |cdc B2 G3/4A// |BcB A2 c3/4c// |cBG EAG |F3- F z
w:      To beg, starve or die, in the gut-ter to lie, And ne'er en-ter their dwell-ings no more. 
        C3/4C// |AAA BGE |F A2 z2 F |DEF AGF | G3 z2 
w:      I'm a man that's done wrong to my par-ents, And dai-ly I wan-der a-bout,
      c |cdc B2 G3/4A// |BcB A2 c |cBG FAG |F3- F2 z |]
w:      To earn a small mite for my lodg-ing at night, God help me, for now I'm cast out!